X: 31789
T: Patrick's Pot
R: jig
M: 6/8
K: Cmajor
|:c2e c2e|cdc BAG|A2c B2d|c2e d2G|
c2e c2e|cdc BAG|Afe dcB|c3 c3:|
|:GAG E2c|GAG E2c|ABc ded|fed cBA|
GAG E2c|GAG E2c|Afe dcB|c3 c3:|

